src/assets/Users.svg

<?xml version="1.0" encoding="UTF-8"?>
<svg width="16px" height="16px" viewBox="0 0 16 16" version="1.1" xmlns="http://www.w3.org/2000/svg" xmlns:xlink="http://www.w3.org/1999/xlink">
    <title>Users</title>
    <defs>
        <path d="M12.6660038,7 C13.5114735,6.23139118 13.9952028,5.14298176 13.9991477,4.00036553 C13.992559,1.79423795 12.2058062,0.00745495026 9.9997159,0.000866172801 C8.03540122,-0.040284358 6.34853445,1.38928789 6.06694129,3.3337823 L6.0002841,3.3337823 C3.79419378,3.34037108 2.00744095,5.12715408 2.00085229,7.33328166 C2.00479716,8.47589789 2.48852651,9.56430731 3.33399622,10.3329062 C1.97517621,10.6769551 0.789497873,11.506944 0.00113638421,12.6659475 L0.00113638421,15.3322804 C-0.0096766132,15.5121668 0.0570715934,15.6880705 0.184497932,15.815499 C0.31192427,15.9429274 0.487824994,16.0096768 0.667708352,15.9988636 L11.3328598,15.9988636 C11.5127432,16.0096768 11.6886439,15.9429274 11.8160703,15.815499 C11.9434966,15.6880705 12.0102448,15.5121668 11.9994318,15.3322804 L11.9994318,12.6659475 L15.3322916,12.6659475 C15.512175,12.6767606 15.6880757,12.6100113 15.8155021,12.4825828 C15.9429284,12.3551543 16.0096766,12.1792506 15.9988636,11.9993642 L15.9988636,9.33303134 C15.2239928,8.16080442 14.0326307,7.32683689 12.6660038,7 Z M9.9997159,1.33403262 C11.4704428,1.33842514 12.6616113,2.52961381 12.6660038,4.00036553 C12.6752331,4.71031015 12.3972861,5.39387807 11.8952455,5.89592714 C11.3932049,6.39797622 10.7096485,6.67592789 9.9997159,6.66669843 L9.9997159,6.66669843 C9.9997159,5.26687366 8.73322916,4.06702385 7.40008523,3.60041559 C7.58988417,2.30762457 8.69314119,1.34579451 9.9997159,1.33403262 Z M3.33399622,7.33328166 C3.33399622,5.86070666 4.52773397,4.66694875 6.0002841,4.66694875 C7.47283423,4.66694875 8.66657197,5.86070666 8.66657197,7.33328166 C8.66657197,8.80585666 7.47283423,9.99961456 6.0002841,9.99961456 C4.52955722,9.99522204 3.33838867,8.80403338 3.33399622,7.33328166 Z M10.6662879,14.6656971 L1.33428032,14.6656971 L1.33428032,13.3325307 C1.33428032,13.3325307 2.66742426,11.332781 6.0002841,11.332781 C9.33314394,11.332781 10.6662879,13.3325307 10.6662879,13.3325307 L10.6662879,14.6656971 Z M14.6657197,11.332781 L10.7329451,11.332781 C10.1401518,10.8295503 9.42904453,10.4854604 8.66657197,10.3329062 C9.35131366,9.72944487 9.80003654,8.90283613 9.93305871,7.99986488 L9.9997159,7.99986488 C13.3325757,7.99986488 14.6657197,9.99961456 14.6657197,9.99961456 L14.6657197,11.332781 Z" id="path-2"></path>
    </defs>
    <g id="Locations-users" stroke="none" stroke-width="1" fill="none" fill-rule="evenodd">
        <g id="Assets-users" transform="translate(-28.000000, -61.000000)">
            <g id="Group-users" transform="translate(28.000000, 27.000000)">
                <g transform="translate(0.000000, 34.000000)" id="Users">
                    <mask id="mask-3" fill="white">
                        <use xlink:href="#path-2"></use>
                    </mask>
                    <use id="Path_392" fill="#FFFFFF" xlink:href="#path-2"></use>
                    <g id="Group" mask="url(#mask-3)" fill="gray">
                        <g id="🎨-Color">
                            <rect id="Rectangle-2" x="0" y="0" width="16" height="16"></rect>
                        </g>
                    </g>
                </g>
            </g>
        </g>
    </g>
</svg>

<svg xmlns="http://www.w3.org/2000/svg" xmlns:xlink="http://www.w3.org/1999/xlink" viewBox="0 0 16 16">
  <defs/>
  <defs>
    <path id="au" d="M12.666 7a4.073 4.073 0 001.333-3 4.011 4.011 0 00-4-4 3.891 3.891 0 00-3.932 3.334H6a4.011 4.011 0 00-4 4 4.073 4.073 0 001.334 2.999 5.733 5.733 0 00-3.333 2.333v2.666A.63.63 0 00.668 16h10.665a.63.63 0 00.666-.667v-2.666h3.333a.63.63 0 00.667-.667V9.333A5.54 5.54 0 0012.666 7zM10 1.334A2.674 2.674 0 0112.666 4 2.632 2.632 0 0110 6.667c0-1.4-1.267-2.6-2.6-3.067A2.652 2.652 0 0110 1.334zm-6.666 6A2.666 2.666 0 116 10a2.674 2.674 0 01-2.666-2.667zm7.332 7.332H1.334v-1.333s1.333-2 4.666-2 4.666 2 4.666 2v1.333zm4-3.333h-3.933a4.582 4.582 0 00-2.066-1A3.86 3.86 0 009.933 8H10c3.333 0 4.666 2 4.666 2v1.333z"/>
  </defs>
  <g fill="none" fill-rule="evenodd">
    <mask id="bu" fill="#fff">
      <use xlink:href="#au"/>
    </mask>
    <use fill="#FFF" xlink:href="#au"/>
    <g fill="gray" mask="url(#bu)">
      <path d="M0 0h16v16H0z"/>
    </g>
  </g>
</svg>
